X:48
T:Minuet 
C:Johann Quantz
N:Arranged for mandolin by Alan Howard
L:1/8
Q:1/4=120
M:3/4
K:C
z4 e2 |: A,C EA ce | DA fe dc | G,B, DG Bd | CG ed cB | AA, CF Ac | B,F dc BA | 
E^G B2 A2 | BE ^GB ed | A,C EA ce | DA fe dc | G,B, DG Bd | CG ed cB | AA, CF Ac | 
B,F dc BA | BE ed cB |1 A2 A,2 e2 :|2 A2 A,2 c2 |: CE Gc eC | B,d ef gB, | A,c fe dc | 
BG, DG Bd | CE Gc eC | B,d ef gB, | A,c fe dc | B2 G,2 g2 | ^CA ce a2 | DA fe fC | 
B,d ef g2 | CG ed eE | FA df dc | GB dF Ec | Fd Gc G,B |1 [c2E2] C2 c2 :|2 [c2E2] C2 e2 | 
A,C EA ce | DA fe dc | G,B, DG Bd | CG ed cB | AA, CF Ac | B,F dc BA | E^G B2 A2 | 
BE ^GB ed | A,C EA ce | DA fe dc | G,B, DG Bd | CG ed cB | AA, CF Ac | B,F dc BA | 
BE ed cB | A2 A,4 | 
 

